X:49
T:Peep a Day
S:Petrie's Third Collection of Strathspey Reels and Country Dances &c.
Z:Steve Wyrick <sjwyrick'at'gmail'dot'com>, 7/31/05
N:Petrie's Third Collection, page 19
L:1/8
M:C
R:Strathspey
K:D
"^Slow"
E|D2F>D A>DF>D|E/E/E FA B>AB<d|D2F>D A>DF>D|E>FE<D B,2 z:|B|d>ed<B d<AA<d|B>cd>e f<BB<c|
d>ed<B A<Fd>B|A<FE>D B,2 B,B|d/c/d/e/ d>B d<AA>d|(B/A/B/c/) (d/c/d/e/) f<BB>c|d>ed<B A<Fd>B|A>F G/F/E/D/ B,3|]
